# make a "spoked wheel" with different colors and shapes
tell [ 1 2 3 4 5 6 7 8 9 10 ]
repeat [ 10 ] [
  ask [ :repcount ] [
    setps :repcount
    setpc :repcount
    setsh :repcount
    rt * / 360 turtles :repcount
    fd 100
  ]
]
